X:1
T:Inter Natos Mulierum
T:Hassler
T:Inter Natos Mulierum
C:Hassler
%%score [ 1 2 3 4 ]
L:1/8
Q:1/2=96
M:4/2
K:Ab
V:1 treble nm="SOPRANO" snm="S."
V:2 treble nm="ALTO" snm="A."
V:3 treble-8 transpose=-12 nm="TENOR" snm="T."
V:4 bass nm="BASS" snm="B."
V:1
 z16 | z16 | z16 | z16 | z16 | z16 | B12 A4 | G4 E4 (A4 B4) | c6 c2 B8 | z4 e4 f4 e4- | %10
w: ||||||In- ter|na- tos mu- *|li- e- rum|non sur- re-|
 e2 c2 =d4 e4 B4 | (c2 G2 B4) A4 G4 | F8 G4 A4 | (B4 A2 G2 F8) | E8 z4 B4- | B4 A4 G4 E4 | %16
w: * xit ma- jor Jo-|han- * * ne Ba-|pti- sta, Ba-|pti- * * *|sta, in-|* ter na- tos|
 (A4 B4) c6 c2 | B8 z8 | z4 e8 d4 | c4 A4 (d4 e4) | f6 f2 e8 | z16 | z8 z4 B4 | c4 B6 G2 =A4 | %24
w: mu- * li- e-|rum,|in- ter|na- tos mu- *|li- e- rum||non|sur- re- xit ma|
 B4 G4 _A8- | A8 (G6 F2 | E4) F8 E4- | (E4 =D4) E8 | z4 B4 B4 c4 | B4 A4 G4 F2 G2 | A2 G2 A8 G4 | %31
w: jor Jo- han-|* ne _|_ Ba- pti-|* * sta,|qui vi- am|Do- mi- ni prae- *|* * * pa-|
 F8 E4 G4- | G4 A4 B8 | c8 z8 | z8 z4 e4 | e4 f4 e4 d4 | c8 z8 | z8 z4 c4 | c4 d4 c4 B4 | %39
w: ra- vit, prae-|* pa- ra-|vit,|qui|vi- am Do- mi-|ni,|qui|vi- am Do- mi-|
 =A4 B8 c4 | d8 c4 e4- | e4 c4 d6 c2 | B4 c6 B2 B4- | B4 =A4 B8 | z8 z4 B4- | B2 B2 B4 c8 | %46
w: ni prae- pa-|ra- vit in|_ he- re- *||* * mo.|al-|* le- lu- ia|
 z8 z4 A4- | A2 G2 =A4 B8 | z8 z4 B4- | B2 B2 B4 c4 _A4- | A2 G2 F4 G4 B4 | (A2 G2 F2 E2 =D4) E4- | %52
w: al-|* le- lu- ia|al-|* le- lu- ia al-|* le- lu- ia al-|le- * * * * lu-|
 (E4 =D4) E4 B4- | B2 B2 B4 c4 A4- | A2 G2 F4 G4 B4 | (A2 G2 F2 E2 =D4) E4- | (E4 =D2 C2 D8) | %57
w: * * ia al-|* le- lu- ia al-|* le- lu- ia al-|le- * * * * lu-||
 E16 |] %58
w: ia.|
V:2
 z16 | z16 | z16 | z16 | z16 | z16 | z16 | z16 | E12 D4 | C4 A,4 (D4 E4) | F6 F2 E8 | %11
w: ||||||||In- ter|na- tos mu- *|li- e- rum|
 z4 E4 F4 E4- | E2 C2 =D4 (E4 _D2 C2 | B,8) z8 | z4 E4 F4 E4- | E2 C2 =D4 E8- | E4 _D4 C4 F4- | %17
w: non sur- re-|* xit ma jor, _ _|_|non sur- re-|* xit ma- jor|_ Jo- han- ne|
 F4 _G4 F8 | E4 =G4 A4 F4- | F2 E2 E4 (B4 A2 G2 | F8) z4 G4 | A4 G6 E2 F4 | G4 A4 (B4 A2 G2 | %23
w: _ Ba- pti-|sta, non sur- re-|* xit ma jor, _ _|_ non|sur- re- xit ma|jor Jo- han- * *|
 F8 E8) | F4 B,4 (D4 C2 B,2 | A,8) B,4 B,4 | C8 B,4 B,4 | B,8 (B,6 A,2 | G,8) z4 E4 | %29
w: |ne Ba- pti- * *|* sta, Jo-|han- ne Ba-|pti- sta, _|_ qui|
 E4 F4 E4 _D4 | C4 A,4 C4 E4- | (E4 =D4) E8 | z16 | z4 E4 E4 F4 | E4 _D4 C4 A4- | A2 G2 F4 G8 | %36
w: vi- am Do- mi-|ni prae- pa- ra-|* * vit,||qui vi- am|Do- mi- ni prae-|* pa- ra- vit,|
 z4 A4 A4 B4 | A4 _G4 F4 A4 | A6 A2 A4 F4 | F4 =G8 A4 | A16 | A12 _G4- | G4 _G4 F8- | F8 =D4 F4- | %44
w: qui vi- am|Do- mi- ni, qui|vi- am Do- mi-|ni prae- pa-|ra-|vit in|_ he- re-|* mo. al-|
 F2 F2 F4 =G4 G4- | G2 F2 G4 A4 E4- | E2 E2 E4 F4 F4- | F2 C2 F4 =D4 F4- | F2 F2 F4 G4 G4- | %49
w: * le- lu- ia al-|* le- lu- ia al-|* le- lu- ia al-|* le- lu- ia al-|* le- lu- ia al-|
 G2 F2 G4 A4 F4- | F2 E4 =D2 E4 E4- | E4 C4 B,8 | B,8 z4 G4- | G2 F2 G4 A4 F4- | F2 E4 =D2 E4 E4- | %55
w: * le- lu- ia al-|* le- lu- ia al-|* le- lu|ia al-|* le- lu- ia al-|* le- lu- ia al-|
 E4 C4 B,8- | B,16 | B,16 |] %58
w: * le- lu-||ia.|
V:3
 B12 A4 | G4 E4 (A4 B4) | c6 c2 B8 | z4 e4 f4 e4- | e2 c2 =d4 e4 B4 | (c2 G2 B4) A4 G4 | F8 G4 c4 | %7
w: In- ter|na- tos mu- *|li- e- rum|non sur- re-|* xit ma- jor Jo-|han- * * ne Ba-|pti- sta, non|
 (B2 A2 G2 F2 E2) A4 G2 | (A2 E2 A4) (G6 FG | A4) A4 F4 G4 | A4 B4 E8- | E8 z8 | B12 A4 | %13
w: sur- * * * * re- xit|ma- * * jor _ _|_ Jo- han- ne|Ba- pti- sta,|_|in- ter|
 G4 E4 (A4 B4) | c6 c2 B8 | z8 z4 B4 | c4 B6 G2 =A4 | (B6 c2 d4) c4 | B8 z8 | z4 e4 f4 e4- | %20
w: na- tos mu- *|li- e- rum|non|sur- re- xit ma|jor, _ _ ma-|jor,|non sur- re-|
 e2 c2 =d4 e8 | z8 B8- | B4 A4 G4 E4 | (A4 B4) c6 c2 | B4 e4 f4 e4- | e2 c2 =d4 e4 E4 | A8 G8 | %27
w: * xit ma jor|in-|* ter na- tos|mu- * li- e-|rum non sur- re-|* xit ma jor Jo-|han- ne|
 F8 (E2 F2 G2 A2 | B8) E8 | z16 | z16 | z4 B4 B4 c4 | B4 A4 G4 F2 G2 | A2 G2 A8 F4 | G8 A4 c4 | %35
w: Ba- pti- * * *|* sta,|||qui vi- am|Do- mi- ni prae- *|* * * pa-|ra- vit, qui|
 c4 d4 c4 B4 | A4 c6 d2 B4 | c8 z4 e4 | e4 f4 e4 d4 | c4 e8 e4 | f8 e4 c4- | c4 e4 (f4 B4) | %42
w: vi- am Do- mi-|ni prae- pa- ra-|vit, qui|vi- am Do- mi-|ni prae- pa-|ra- vit in|_ he- re- *|
 d4 e8 d4 | c8 B4 =d4- | d2 c2 =d4 e4 e4- | e2 =d2 e4 A4 c4- | c2 B2 c4 d4 c4- | c2 c2 c4 B4 =d4- | %48
w: mo, in he-|re- mo. al-|* le- lu- ia al-|* le- lu- ia al-|* le- lu- ia al-|* le- lu- ia al-|
 d2 c2 =d4 e4 e4- | e2 f2 e4 e4 _d4- | d2 B2 A4 B4 G4 | c2 B2 A2 G2 F4 G4 | F8 E4 e4- | %53
w: * le- lu- ia al-|* le- lu- ia al-|* le- lu- ia al-|le- * * * * *|lu- ia al-|
 e2 f2 e4 e4 d4- | d2 B2 A4 B4 G4 | c2 B2 A2 G2 F4 G4 | F16 | G16 |] %58
w: * le- lu- ia al-|* le- lu- ia al-|le- * * * * *|lu-|ia.|
V:4
 z16 | z16 | E,12 D,4 | C,4 A,,4 (D,4 E,4) | F,6 F,2 E,8 | z4 E,4 F,4 E,4- | %6
w: ||In- ter|na- tos mu- *|li- e- rum|non sur- re-|
 E,2 C,2 =D,4 E,4 A,,4 | E,8 C,4 B,,4 | A,,8 E,8 | z16 | z16 | z16 | z8 E,8- | E,8 _D,8 | %14
w: * xit ma jor Jo-|han- ne Ba-|pti- sta,||||in-|* ter|
 C,4 A,,4 (D,4 E,4) | F,6 F,2 E,8 | z16 | z4 B,8 A,4 | G,4 E,4 (A,4 B,4) | C6 C2 B,8- | %20
w: na- tos mu- *|li- e- rum||in- ter|na- tos mu- *|li- e- rum|
 B,8 z4 E,4 | F,4 E,6 C,2 =D,4 | E,16 | z16 | z4 E,4 _D,4 E,4 | F,8 E,8 | A,,4 A,,4 B,,8- | %27
w: _ non|sur- re- xit ma|jor||Jo- han- ne|Ba- pti-|sta, Ba- pti-|
 B,,8 E,8- | E,8 z8 | z16 | z16 | z8 E,8 | E,4 F,4 E,4 _D,4 | C,4 A,,2 B,,2 C,2 A,,2 D,4 | %34
w: * sta,|_|||qui|vi- am Do- mi-|ni prae- * * * *|
 C,4 B,,4 A,,8 | z16 | z4 F,4 F,4 _G,4 | F,4 E,4 D,4 A,4 | A,4 F,4 A,4 B,4 | F,4 E,8 A,4 | %40
w: pa- ra- vit,||qui vi- am|Do- mi- ni, qui|vi- am Do- mi-|ni prae- pa-|
 (D,2 E,2 F,2 G,2 A,4) A,,4 | A,8 F,4 _G,4- | G,2 F,2 E,4 F,8- | F,8 B,,4 B,4- | B,2 =A,2 B,4 E,8 | %45
w: ra- * * * * vit,|in he- re-||* mo. al-|* le- lu- ia|
 z8 z4 A,4- | A,2 =G,2 A,4 D,4 F,4- | F,2 =E,2 F,4 B,,4 B,4- | B,2 =A,2 B,4 E,4 E,4- | %49
w: al-|* le- lu- ia al-|* le- lu- ia al-|* le- lu- ia al-|
 E,2 =D,2 E,4 A,,4 _D,4- | D,2 E,2 F,4 E,8 | A,,4 A,,4 B,,8 | B,,8 z4 E,4- | %53
w: * le- lu- ia al-|* le- lu- ia|al- le- lu-|ia al-|
 E,2 =D,2 E,4 A,,4 _D,4- | D,2 E,2 F,4 E,8 | A,,4 A,,4 B,,8- | B,,16 | E,16 |] %58
w: * le- lu- ia al-|* le- lu- ia|al- le- lu-||ia.|

